X: 9961
T: Devil In The Woodpile, The
R: reel
M: 4/4
K: Gmajor
|:G2B2 ABBB|G2B2 AGED|G2AB cBAG|ABAF AGG2:|
Bd2^c d2d2|dedB dBAB|Bd2^c d2d2|ABAF AGG2|
Bd2^c d2d2|dedB dBAB|d2ef gfed|ABAG AGG2|

